brandFactory_export/1.Light/Cuidado precaucion _1Light.svg

<?xml version="1.0" encoding="UTF-8"?>
<svg width="24px" height="24px" viewBox="0 0 24 24" version="1.1" xmlns="http://www.w3.org/2000/svg" xmlns:xlink="http://www.w3.org/1999/xlink">
    <title>1.Light/Cuidado precaucion _1Light</title>
    <g id="Symbols" stroke="none" stroke-width="1" fill="none" fill-rule="evenodd">
        <g id="1.Light/Cuidado-precaucion-_1Light" fill="#5CB615" fill-rule="nonzero">
            <path d="M12.3327731,22.6319328 C14.7495798,22.5882353 22.6386555,21.6773109 22.6386555,11.8420168 C22.6386555,7.58319328 21.1831933,4.51092437 18.3092437,2.7092437 C15.9630252,1.23697479 13.3142857,1.02184874 12.2823529,0.994957983 C12.0168067,0.988235294 11.7109244,0.98487395 11.4151261,0.98487395 L11.1966387,0.98487395 C10.1714286,0.994957983 7.5394958,1.1697479 5.22689076,2.62521008 C2.41008403,4.39663866 0.98487395,7.47563025 0.98487395,11.7747899 C0.98487395,16.0806723 2.42689076,19.1663866 5.27058824,20.9613445 C7.60336134,22.4302521 10.2554622,22.6252101 11.287395,22.6386555 L11.6403361,22.6420168 C11.8823529,22.6386555 12.1243697,22.6386555 12.3327731,22.6319328 Z M12.3058824,0.0100840336 C14.6184874,0.0638655462 23.6235294,0.978151261 23.6235294,11.8420168 C23.6235294,22.7294118 14.6084034,23.5764706 12.3529412,23.6168067 C12.1378151,23.6201681 11.8890756,23.6235294 11.6403361,23.6235294 C11.5159664,23.6235294 11.3915966,23.6235294 11.2705882,23.6201681 C8.89747899,23.5865546 0,22.7294118 0,11.7747899 C0,0.833613445 8.81680672,0.0201680672 11.1865546,0 L11.4151261,0 C11.7176471,0 12.0336134,0.00336134454 12.3058824,0.0100840336 Z M11.8084034,15.7613445 C11.5361345,15.7613445 11.3176471,15.5394958 11.3176471,15.2705882 L11.3176471,5.07226891 C11.3176471,4.8 11.5394958,4.58151261 11.8084034,4.58151261 C12.0773109,4.58151261 12.2991597,4.80336134 12.2991597,5.07226891 L12.2991597,15.2705882 C12.2991597,15.5428571 12.0773109,15.7613445 11.8084034,15.7613445 Z M11.8117647,17.0151261 C12.2352941,17.0151261 12.5815126,17.3579832 12.5815126,17.7848739 C12.5815126,18.2084034 12.2386555,18.5546218 11.8117647,18.5546218 C11.3882353,18.5546218 11.0420168,18.2084034 11.0420168,17.7848739 C11.0453782,17.3579832 11.3882353,17.0151261 11.8117647,17.0151261 L11.8117647,17.0151261 Z" id="Cuidado-precaucion-_1Light"></path>
        </g>
    </g>
</svg>

<svg width="24" height="24" viewBox="0 0 24 24" xmlns="http://www.w3.org/2000/svg"><path d="M12.333 22.632c2.417-.044 10.306-.955 10.306-10.79 0-4.259-1.456-7.331-4.33-9.133-2.346-1.472-4.995-1.687-6.027-1.714a35.42 35.42 0 00-.867-.01h-.218c-1.026.01-3.658.185-5.97 1.64C2.41 4.397.985 7.475.985 11.775c0 4.306 1.442 7.391 4.286 9.186 2.332 1.47 4.984 1.664 6.016 1.678l.353.003c.242-.003.484-.003.693-.01zM12.306.01c2.312.054 11.318.968 11.318 11.832 0 10.887-9.016 11.734-11.271 11.775-.215.003-.464.007-.713.007-.124 0-.248 0-.37-.004C8.898 23.587 0 22.73 0 11.775 0 .834 8.817.02 11.187 0h.228c.303 0 .619.003.89.01zm-.498 15.751a.491.491 0 01-.49-.49V5.072a.491.491 0 01.981 0v10.199c0 .272-.222.49-.49.49zm.004 1.254a.77.77 0 110 1.54.77.77 0 010-1.54z" fill="#5CB615" fill-rule="nonzero"/></svg>
